public/assets/logos/company/logo.svg

<svg width="179" height="36" viewBox="0 0 179 36" fill="none" xmlns="http://www.w3.org/2000/svg">
<path d="M53.5934 14.5162H53.8188L53.0206 18.8097H41.8672V18.5835L42.6242 18.4605C43.2182 18.3782 43.3407 18.2343 43.3407 17.7618V5.47725C43.3407 5.00471 43.2178 4.86086 42.6242 4.77887L41.8672 4.65552V4.42969H48.2527V4.65552L47.2087 4.77887C46.6359 4.86086 46.513 5.02521 46.513 5.47725V17.5143C46.513 18.2537 46.7383 18.5205 47.5361 18.4594L49.8691 18.3383C51.1376 18.2354 51.4654 17.8043 52.5498 16.0989L53.5934 14.5162Z" fill="white"/>
<path d="M55.7785 13.5914V5.477C55.7785 5.00446 55.6148 4.9016 55.042 4.77862L54.4688 4.65527V4.42944H60.7105V4.65527L59.6465 4.79912C59.0733 4.86061 58.9505 5.04545 58.9505 5.49749V13.4889C58.9505 16.3033 60.1384 17.8864 62.6548 17.8864C65.0902 17.8864 66.6045 16.3868 66.5636 13.449L66.4408 6.21935C66.4408 5.31563 66.1746 5.00744 65.3972 4.8226L64.5177 4.65527V4.42944H68.5272V4.65527L67.9332 4.81962C67.2579 5.02495 67.1164 5.436 67.0942 6.19587L66.9523 13.5307C66.8707 16.92 65.1703 19.0155 61.5291 19.0155C57.6203 19.0148 55.7785 17.0427 55.7785 13.5914ZM58.6438 2.10773C58.6423 1.92388 58.6772 1.74156 58.7466 1.57141C58.816 1.40125 58.9184 1.24666 59.0479 1.11665C59.1774 0.986644 59.3314 0.883818 59.501 0.814171C59.6705 0.744523 59.8521 0.709446 60.0352 0.710986C60.8334 0.710986 61.4679 1.32737 61.4679 2.10773C61.4679 2.88809 60.8334 3.50597 60.0352 3.50597C59.852 3.50752 59.6702 3.47239 59.5006 3.40265C59.331 3.33291 59.1769 3.22995 59.0474 3.09978C58.9179 2.96962 58.8155 2.81485 58.7462 2.64452C58.6769 2.47419 58.6421 2.29171 58.6438 2.10773ZM62.4502 2.10773C62.4487 1.9239 62.4837 1.7416 62.5531 1.57146C62.6225 1.40133 62.7249 1.24676 62.8544 1.11676C62.984 0.986766 63.1379 0.883939 63.3074 0.814273C63.4769 0.744608 63.6585 0.709497 63.8417 0.710986C64.6398 0.710986 65.2743 1.32737 65.2743 2.10773C65.2743 2.88809 64.6398 3.50597 63.8417 3.50597C63.6584 3.50746 63.4767 3.47231 63.3071 3.40255C63.1375 3.33279 62.9834 3.22983 62.8539 3.09967C62.7244 2.96952 62.622 2.81477 62.5527 2.64446C62.4834 2.47416 62.4485 2.2917 62.4502 2.10773Z" fill="white"/>
<path d="M84.1867 11.3322C84.1867 15.9134 80.851 18.8101 76.1236 18.8101H69.3906V18.5839L70.1476 18.4609C70.7416 18.3785 70.8641 18.2347 70.8641 17.7621V5.47725C70.8641 5.00471 70.7412 4.86086 70.1476 4.77887L69.3906 4.65552V4.42969H76.1039C80.544 4.42969 84.1867 6.77151 84.1867 11.3322ZM76.1848 18.4192C78.8452 18.4192 80.8098 15.7691 80.8098 11.64C80.8098 7.16169 78.6195 4.82024 75.4267 4.82024H74.0361V17.3101C74.0361 18.1728 74.1589 18.4192 75.0184 18.4192H76.1848Z" fill="white"/>
<path d="M100.39 11.3322C100.39 15.9134 97.0542 18.8101 92.3267 18.8101H85.5938V18.5839L86.3507 18.4609C86.9447 18.3785 87.0672 18.2347 87.0672 17.7621V5.47725C87.0672 5.00471 86.9443 4.86086 86.3507 4.77887L85.5938 4.65552V4.42969H92.3063C96.7472 4.42969 100.39 6.77151 100.39 11.3322ZM92.388 18.4192C95.0483 18.4192 97.013 15.7691 97.013 11.64C97.013 7.16169 94.8226 4.82024 91.6299 4.82024H90.2384V17.3101C90.2384 18.1728 90.3613 18.4192 91.2208 18.4192H92.388Z" fill="white"/>
<path d="M113.429 14.5982H113.654L112.917 18.8093H101.805V18.5831L102.562 18.4601C103.156 18.3778 103.278 18.2339 103.278 17.7614V5.47725C103.278 5.00471 103.156 4.86086 102.562 4.77887L101.805 4.65552V4.42969H112.917L113.245 8.47645H113.02L111.976 6.71114C111.157 5.39638 110.851 4.96521 109.582 4.88285L106.45 4.73602V11.2908L110.973 10.8183L111.075 10.9006V11.7224L106.45 11.558V17.5154C106.45 18.2548 106.675 18.5216 107.474 18.4605L109.807 18.3372C111.035 18.2343 111.362 17.7826 112.405 16.1183L113.429 14.5982Z" fill="white"/>
<path d="M114.617 18.8097V18.5835L115.313 18.4192C115.947 18.2757 116.093 17.8646 116.132 17.1868L116.827 5.47725C116.868 5.00471 116.705 4.86086 116.132 4.77887L115.352 4.65552V4.42969H120.182L124.336 16.4265H124.44L128.411 4.42969H133.22V4.65552L132.483 4.77887C131.91 4.88136 131.767 5.02521 131.787 5.47725L132.401 17.7618C132.421 18.2548 132.524 18.358 133.097 18.4605L133.834 18.5835V18.8097H127.633V18.5835L128.39 18.4605C129.086 18.3372 129.25 18.2343 129.23 17.7618L128.656 5.6006H128.554L124.032 18.8097H121.904L117.257 5.6006H117.155L116.705 17.1663C116.664 17.9675 116.991 18.2757 117.789 18.4192L118.69 18.5835V18.8097H114.617Z" fill="white"/>
<path d="M147.629 17.4331C147.915 18.1933 148.202 18.4192 149.039 18.5835V18.8097H142.574V18.5835C144.356 18.3782 144.6 18.1736 144.272 17.3101L142.738 13.181H137.867L136.496 17.0634C136.127 18.1318 136.291 18.3782 138.215 18.5835V18.8097H134.102V18.5835C135.002 18.3972 135.309 18.1523 135.718 17.1253L140.057 5.99078L139.504 4.53217L139.586 4.42969H142.738L147.629 17.4331ZM138.01 12.7904H142.594L140.282 6.60717H140.179L138.01 12.7904Z" fill="white"/>
<path d="M159.621 4.42969H163.591V4.65552L163.039 4.81987C162.364 5.0457 162.2 5.43626 162.2 6.19612L162.036 18.8097H160.215L151.456 6.05227H151.333L151.497 17.0224C151.517 17.9261 151.783 18.2343 152.561 18.4192L153.441 18.5835V18.8097H149.391V18.5835L150.025 18.4192C150.7 18.2328 150.864 17.8031 150.864 17.0429L151.007 5.43626C150.7 5.08707 150.332 4.88136 149.882 4.75838L149.554 4.65552V4.42969H154.118L161.608 15.2742H161.731L161.545 6.21475C161.545 5.31104 161.259 5.00285 160.502 4.818L159.621 4.65366L159.621 4.42969Z" fill="white"/>
<path d="M174.576 4.42969H178.546V4.65552L177.994 4.81987C177.319 5.0457 177.155 5.43626 177.155 6.19612L176.991 18.8097H175.17L166.41 6.05227H166.288L166.452 17.0224C166.472 17.9261 166.738 18.2343 167.516 18.4192L168.396 18.5835V18.8097H164.344V18.5835L164.978 18.4192C165.654 18.2328 165.817 17.8031 165.817 17.0429L165.961 5.43626C165.654 5.08707 165.285 4.88136 164.835 4.75838L164.507 4.65552V4.42969H169.071L176.561 15.2742H176.684L176.498 6.21475C176.498 5.31104 176.212 5.00285 175.455 4.818L174.575 4.65366L174.576 4.42969Z" fill="white"/>
<path d="M45.0372 33.7004H42.8203V23.8209H45.0372V33.7004Z" fill="#D6B271"/>
<path d="M56.1285 33.7004H53.8911L49.8349 27.493C49.5968 27.1304 49.4321 26.8571 49.3407 26.6732H49.3132C49.3499 27.0213 49.3682 27.5537 49.3682 28.2704V33.7004H47.275V23.8209H49.6617L53.567 29.8354C53.7455 30.1067 53.9103 30.3755 54.0612 30.6417H54.0887C54.052 30.4119 54.0337 29.9595 54.0337 29.2844V23.8209H56.127L56.1285 33.7004Z" fill="#D6B271"/>
<path d="M66.5747 23.821L63.184 33.7005H60.6722L57.3228 23.821H59.7113L61.7633 30.6968C61.8731 31.0687 61.9395 31.397 61.9625 31.6818H62.0035C62.0435 31.338 62.1152 30.9987 62.2177 30.6682L64.2559 23.8201L66.5747 23.821Z" fill="#D6B271"/>
<path d="M73.6575 33.7004H67.7552V23.8209H73.431V25.6332H69.9733V27.8309H73.192V29.636H69.9721V31.8958H73.6575V33.7004Z" fill="#D6B271"/>
<path d="M74.4411 33.1905V30.9857C74.8251 31.313 75.2644 31.5685 75.7382 31.7401C76.1915 31.9054 76.6699 31.9906 77.1522 31.9917C77.398 31.9953 77.6434 31.9698 77.8832 31.9158C78.067 31.8751 78.2428 31.8041 78.4034 31.7057C78.5321 31.6276 78.6394 31.5187 78.7158 31.3887C78.7841 31.2681 78.8196 31.1315 78.8186 30.9928C78.821 30.8071 78.7632 30.6257 78.654 30.4759C78.5296 30.3107 78.3775 30.1685 78.2045 30.0557C77.99 29.9136 77.7644 29.7893 77.5298 29.684C77.2687 29.5644 76.9873 29.4427 76.6856 29.3188C75.9165 28.9975 75.3434 28.6049 74.9662 28.1408C74.589 27.6768 74.4002 27.1162 74.3998 26.4588C74.3998 25.9445 74.5028 25.5023 74.7089 25.1325C74.9125 24.7653 75.2007 24.4522 75.5494 24.2197C75.9258 23.9723 76.343 23.7945 76.7817 23.6944C77.2675 23.5798 77.7651 23.5232 78.2642 23.5258C78.72 23.5215 79.1754 23.5523 79.6265 23.6179C80.0003 23.6743 80.3672 23.7702 80.721 23.9039V25.964C80.5513 25.8463 80.371 25.7448 80.1824 25.6608C79.9879 25.5736 79.7871 25.501 79.5818 25.4437C79.3802 25.3873 79.175 25.3448 78.9677 25.3162C78.775 25.2896 78.5808 25.2758 78.3863 25.2751C78.1555 25.2728 77.9252 25.297 77.6999 25.3472C77.5169 25.3868 77.3413 25.4554 77.1798 25.5506C77.0475 25.6285 76.9348 25.7358 76.8502 25.8642C76.7722 25.9863 76.7317 26.1288 76.7336 26.2739C76.7314 26.4319 76.7769 26.5868 76.864 26.7184C76.9646 26.8634 77.0901 26.9893 77.2345 27.0904C77.4188 27.2217 77.6139 27.337 77.8177 27.435C78.0466 27.5474 78.3052 27.6633 78.5934 27.7827C78.9584 27.9341 79.3128 28.1102 79.654 28.3098C79.95 28.4823 80.2213 28.6944 80.4603 28.9404C80.6826 29.1715 80.8574 29.4442 80.975 29.743C81.0941 30.0438 81.1537 30.3939 81.1537 30.7935C81.1537 31.3447 81.0495 31.8075 80.8412 32.1818C80.6381 32.5507 80.3468 32.8632 79.9936 33.0913C79.6369 33.3233 79.2216 33.4898 78.748 33.5908C78.2548 33.6937 77.7523 33.7445 77.2486 33.7422C76.7318 33.7443 76.2159 33.6983 75.7076 33.6046C75.2203 33.5124 74.7981 33.3744 74.4411 33.1905Z" fill="#D6B271"/>
<path d="M90.0267 25.633H87.2195V33.7005H84.9959V25.633H82.2025V23.8207H90.0267V25.633Z" fill="#D6B271"/>
<path d="M102.566 33.7004H100.377V27.7894C100.377 27.1509 100.404 26.4459 100.459 25.6743H100.404C100.29 26.2802 100.187 26.7165 100.095 26.9831L97.7891 33.7004H95.9773L93.6301 27.0522C93.5658 26.8729 93.4628 26.4135 93.321 25.6743H93.2598C93.3192 26.648 93.3489 27.5022 93.3489 28.2369V33.7004H91.3517V23.8209H94.5979L96.6089 29.6769C96.7669 30.1366 96.8841 30.6094 96.959 31.0898H97.0012C97.107 30.608 97.2375 30.132 97.3922 29.6637L99.4032 23.8215H102.567L102.566 33.7004Z" fill="#D6B271"/>
<path d="M110.706 33.7004H104.804V23.8209H110.48V25.6332H107.022V27.8309H110.241V29.636H107.021V31.8958H110.706V33.7004Z" fill="#D6B271"/>
<path d="M121.138 33.7004H118.901L114.845 27.493C114.607 27.1304 114.442 26.8571 114.351 26.6732H114.323C114.36 27.0213 114.378 27.5537 114.378 28.2704V33.7004H112.284V23.8209H114.673L118.578 29.8354C118.757 30.1067 118.921 30.3755 119.073 30.6417H119.1C119.063 30.4119 119.045 29.9595 119.045 29.2844V23.8209H121.138V33.7004Z" fill="#D6B271"/>
<path d="M130.301 25.633H127.494V33.7005H125.27V25.633H122.477V23.8207H130.301V25.633Z" fill="#D6B271"/>
<path d="M131.173 33.3218V31.117C131.557 31.4443 131.996 31.6998 132.47 31.8714C132.923 32.0367 133.401 32.1218 133.884 32.1229C134.13 32.1266 134.375 32.1011 134.615 32.0471C134.799 32.0063 134.974 31.9353 135.135 31.837C135.264 31.7588 135.371 31.6499 135.447 31.52C135.516 31.3994 135.551 31.2628 135.55 31.1241C135.553 30.9384 135.495 30.757 135.386 30.6071C135.261 30.442 135.109 30.2998 134.936 30.1869C134.721 30.0446 134.495 29.9202 134.26 29.815C133.999 29.6954 133.718 29.5736 133.416 29.4497C132.647 29.1285 132.074 28.7358 131.697 28.2718C131.319 27.8078 131.131 27.2472 131.131 26.5901C131.131 26.0757 131.234 25.6336 131.44 25.2638C131.644 24.8966 131.933 24.5838 132.282 24.3515C132.658 24.1041 133.075 23.926 133.513 23.8257C133.999 23.7111 134.496 23.6545 134.995 23.657C135.451 23.6528 135.907 23.6836 136.358 23.7492C136.732 23.8053 137.099 23.901 137.453 24.0345V26.0947C137.283 25.9769 137.103 25.8754 136.915 25.7915C136.72 25.7042 136.519 25.6316 136.314 25.5743C136.112 25.518 135.907 25.4754 135.7 25.4469C135.507 25.4202 135.313 25.4065 135.118 25.4057C134.888 25.4034 134.657 25.4276 134.432 25.4779C134.248 25.5173 134.072 25.586 133.91 25.6812C133.778 25.7593 133.666 25.8666 133.581 25.9948C133.503 26.117 133.462 26.2594 133.464 26.4046C133.462 26.5626 133.508 26.7175 133.595 26.849C133.695 26.994 133.821 27.1199 133.965 27.221C134.149 27.3524 134.344 27.4677 134.548 27.5656C134.777 27.6781 135.035 27.794 135.324 27.9133C135.689 28.0647 136.043 28.2408 136.384 28.4404C136.68 28.6129 136.952 28.8251 137.191 29.071C137.413 29.3021 137.588 29.5748 137.705 29.8736C137.824 30.1744 137.884 30.5246 137.884 30.9241C137.884 31.4753 137.78 31.9381 137.572 32.3125C137.368 32.6814 137.077 32.9939 136.724 33.222C136.367 33.454 135.952 33.6204 135.478 33.7214C134.985 33.8244 134.483 33.8751 133.979 33.8728C133.462 33.875 132.946 33.8289 132.438 33.7352C131.951 33.6435 131.53 33.5057 131.173 33.3218Z" fill="#D6B271"/>
<path d="M0 10.7405V35.2875H7.35071L10.6466 30.9672V35.2875H16.966C14.3918 30.2372 11.9427 25.4395 9.39257 20.435C10.4762 20.435 11.4834 20.4178 12.4621 20.435H13.7302L14.8165 22.5592L16.643 26.1267L18.8412 30.4176L18.1589 32.1918L18.0846 32.3878C17.8767 32.9368 17.6584 33.4954 17.4308 34.082L16.9616 35.289H22.6807V20.6239H26.1615V35.2875H29.4504L32.7459 30.9672V2.41553H8.29517C3.71471 2.41627 0.00185624 6.14292 0 10.7405Z" fill="url(#paint0_linear_1_31)"/>
<defs>
<linearGradient id="paint0_linear_1_31" x1="-7.60157e-08" y1="6.7271" x2="19.5" y2="21.5" gradientUnits="userSpaceOnUse">
<stop stop-color="white"/>
<stop offset="0.535" stop-color="#D5D5D5"/>
<stop offset="1" stop-color="white"/>
</linearGradient>
</defs>
</svg>

<svg width="179" height="36" viewBox="0 0 179 36" fill="none" xmlns="http://www.w3.org/2000/svg"><path d="M53.593 14.516h.226l-.798 4.294H41.867v-.226l.757-.123c.594-.083.717-.227.717-.7V5.478c0-.472-.123-.616-.717-.698l-.757-.123V4.43h6.386v.226l-1.044.123c-.573.082-.696.246-.696.698v12.037c0 .74.225 1.006 1.023.945l2.333-.12c1.269-.104 1.596-.535 2.68-2.24zm2.186-.925V5.477c0-.473-.164-.575-.737-.698l-.573-.124V4.43h6.242v.226l-1.064.144c-.574.062-.697.246-.697.698v7.992c0 2.814 1.188 4.397 3.705 4.397 2.435 0 3.95-1.5 3.909-4.437l-.123-7.23c0-.903-.266-1.212-1.044-1.396l-.88-.168V4.43h4.01v.226l-.594.165c-.675.205-.817.616-.839 1.376l-.142 7.335c-.081 3.389-1.782 5.484-5.423 5.484-3.909 0-5.75-1.972-5.75-5.424m2.865-11.483A1.39 1.39 0 0 1 59.5.814c.17-.07.351-.105.534-.103.798 0 1.433.616 1.433 1.397 0 .78-.635 1.398-1.433 1.398a1.375 1.375 0 0 1-1.289-.861 1.4 1.4 0 0 1-.102-.537m3.806 0a1.39 1.39 0 0 1 .857-1.294q.257-.105.535-.103c.798 0 1.432.616 1.432 1.397 0 .78-.634 1.398-1.432 1.398a1.38 1.38 0 0 1-1.29-.862 1.4 1.4 0 0 1-.102-.536m21.738 9.224c0 4.581-3.336 7.478-8.063 7.478H69.39v-.226l.757-.123c.594-.082.716-.226.716-.699V5.477c0-.472-.123-.616-.716-.698l-.757-.123V4.43h6.713c4.44 0 8.083 2.342 8.083 6.902m-8.002 7.087c2.66 0 4.625-2.65 4.625-6.779 0-4.478-2.19-6.82-5.383-6.82h-1.39v12.49c0 .863.122 1.11.981 1.11zm24.206-7.087c0 4.581-3.336 7.478-8.063 7.478h-6.733v-.226l.757-.123c.594-.082.716-.226.716-.699V5.477c0-.472-.123-.616-.716-.698l-.757-.123V4.43h6.712c4.441 0 8.084 2.342 8.084 6.902m-8.002 7.087c2.66 0 4.625-2.65 4.625-6.779 0-4.478-2.19-6.82-5.383-6.82h-1.392v12.49c0 .863.123 1.11.983 1.11zm21.041-3.821h.225l-.737 4.211h-11.112v-.226l.757-.123c.594-.082.716-.226.716-.699V5.477c0-.472-.122-.616-.716-.698l-.757-.123V4.43h11.112l.328 4.046h-.225l-1.044-1.765c-.819-1.315-1.125-1.746-2.394-1.828l-3.132-.147v6.555l4.523-.473.102.083v.821l-4.625-.164v5.957c0 .74.225 1.007 1.024.945l2.333-.123c1.228-.103 1.555-.554 2.598-2.219zm1.188 4.212v-.226l.696-.165c.634-.143.78-.554.819-1.232l.695-11.71c.041-.472-.122-.616-.695-.698l-.78-.123V4.43h4.83l4.154 11.997h.104l3.971-11.997h4.809v.226l-.737.123c-.573.102-.716.246-.696.698l.614 12.285c.02.493.123.596.696.698l.737.123v.227h-6.201v-.226l.757-.123c.696-.124.86-.227.84-.7l-.574-12.16h-.102l-4.522 13.209h-2.128L117.257 5.6h-.102l-.45 11.566c-.041.802.286 1.11 1.084 1.253l.901.165v.226zm33.012-1.377c.286.76.573.986 1.41 1.15v.227h-6.465v-.226c1.782-.206 2.026-.41 1.698-1.274l-1.534-4.129h-4.871l-1.371 3.882c-.369 1.069-.205 1.315 1.719 1.52v.227h-4.113v-.226c.9-.187 1.207-.432 1.616-1.459l4.339-11.134-.553-1.459.082-.102h3.152zm-9.619-4.643h4.584l-2.312-6.183h-.103zm21.611-8.36h3.97v.226l-.552.164c-.675.226-.839.616-.839 1.376l-.164 12.614h-1.821l-8.759-12.758h-.123l.164 10.97c.02.904.286 1.212 1.064 1.397l.88.165v.226h-4.05v-.226l.634-.165c.675-.186.839-.616.839-1.376l.143-11.607c-.307-.349-.675-.555-1.125-.678l-.328-.102V4.43h4.564l7.49 10.844h.123l-.186-9.06c0-.903-.286-1.211-1.043-1.396l-.881-.164zm14.955 0h3.97v.226l-.552.164c-.675.226-.839.616-.839 1.376l-.164 12.614h-1.821l-8.76-12.758h-.122l.164 10.97c.02.904.286 1.212 1.064 1.397l.88.165v.226h-4.052v-.226l.634-.165c.676-.186.839-.616.839-1.376l.144-11.607c-.307-.349-.676-.555-1.126-.678l-.328-.102V4.43h4.564l7.49 10.844h.123l-.186-9.06c0-.903-.286-1.211-1.043-1.396l-.88-.164z" fill="#fff"/><path d="M45.037 33.7H42.82v-9.88h2.217zm11.092 0H53.89l-4.056-6.207a9 9 0 0 1-.494-.82h-.028q.055.522.055 1.597v5.43h-2.093v-9.88h2.387l3.905 6.015q.267.407.494.807h.028q-.055-.345-.055-1.358v-5.463h2.093zm10.446-9.879-3.391 9.88h-2.512l-3.35-9.88h2.39l2.051 6.876q.165.558.2.985h.04a5.6 5.6 0 0 1 .215-1.014l2.038-6.848zm7.083 9.879h-5.903v-9.88h5.676v1.813h-3.458v2.198h3.219v1.805h-3.22v2.26h3.686zm.783-.51v-2.204a4.2 4.2 0 0 0 2.711 1.006 3 3 0 0 0 .731-.076c.184-.04.36-.112.52-.21a.9.9 0 0 0 .313-.317.86.86 0 0 0-.062-.913 1.8 1.8 0 0 0-.45-.42 5 5 0 0 0-.674-.372q-.392-.18-.844-.365-1.155-.482-1.72-1.178-.566-.696-.566-1.682 0-.772.309-1.326a2.6 2.6 0 0 1 .84-.913 3.8 3.8 0 0 1 1.233-.526 6.3 6.3 0 0 1 1.482-.168q.685-.007 1.362.092.563.084 1.095.286v2.06q-.255-.178-.539-.303a4 4 0 0 0-.6-.217 4.6 4.6 0 0 0-1.196-.169 3 3 0 0 0-.686.072q-.276.06-.52.204a1 1 0 0 0-.33.313.74.74 0 0 0-.116.41.8.8 0 0 0 .13.444c.1.145.226.271.37.372q.278.198.584.345.343.168.775.348.548.227 1.061.527.446.26.806.63c.223.232.397.504.515.803q.18.45.179 1.05 0 .828-.313 1.389a2.54 2.54 0 0 1-.847.91 3.7 3.7 0 0 1-1.246.499 7.2 7.2 0 0 1-1.5.151 8.3 8.3 0 0 1-1.54-.137 4.7 4.7 0 0 1-1.267-.414m15.586-7.558h-2.808V33.7h-2.223v-8.067h-2.793v-1.812h7.824zm12.539 8.067h-2.189v-5.91q0-.959.082-2.116h-.055q-.171.91-.309 1.31L97.789 33.7h-1.812l-2.347-6.648q-.096-.27-.309-1.378h-.061q.09 1.46.089 2.563V33.7h-1.997v-9.88h3.246l2.01 5.857q.239.69.351 1.413h.042q.159-.723.391-1.426l2.011-5.843h3.164zm8.14 0h-5.902v-9.88h5.676v1.813h-3.458v2.198h3.219v1.805h-3.22v2.26h3.685zm10.432 0h-2.237l-4.056-6.207a9 9 0 0 1-.494-.82h-.028q.055.522.055 1.597v5.43h-2.094v-9.88h2.389l3.905 6.015q.268.407.495.807h.027q-.055-.345-.055-1.358v-5.463h2.093zm9.163-8.067h-2.807V33.7h-2.224v-8.067h-2.793v-1.812h7.824zm.872 7.689v-2.205a4.2 4.2 0 0 0 2.711 1.006q.37.005.731-.076.277-.062.52-.21a.9.9 0 0 0 .312-.317.8.8 0 0 0 .103-.396.86.86 0 0 0-.164-.517 1.8 1.8 0 0 0-.45-.42 5 5 0 0 0-.676-.372q-.391-.18-.844-.365-1.154-.483-1.719-1.178-.566-.696-.566-1.682 0-.771.309-1.326a2.6 2.6 0 0 1 .842-.912 3.8 3.8 0 0 1 1.231-.526 6.3 6.3 0 0 1 1.482-.169q.685-.006 1.363.092.563.084 1.095.286v2.06a3.3 3.3 0 0 0-.538-.303 4 4 0 0 0-.601-.218 4.7 4.7 0 0 0-1.196-.168 3 3 0 0 0-.686.072q-.278.06-.522.203a1 1 0 0 0-.329.314.74.74 0 0 0-.117.41.8.8 0 0 0 .131.444q.152.218.37.372.276.197.583.345.343.168.776.347.548.228 1.06.527c.296.173.568.385.807.631.222.231.397.504.514.803q.179.45.179 1.05 0 .826-.312 1.389a2.55 2.55 0 0 1-.848.909 3.7 3.7 0 0 1-1.246.5 7 7 0 0 1-1.499.15 8.3 8.3 0 0 1-1.541-.137 4.6 4.6 0 0 1-1.265-.413" fill="#D6B271"/><path d="M0 10.74v24.548h7.35l3.297-4.32v4.32h6.319c-2.574-5.05-5.023-9.848-7.573-14.853 1.083 0 2.09-.017 3.07 0h1.267l1.086 2.124 1.827 3.568 2.198 4.29-.682 1.775-.074.196c-.208.549-.427 1.107-.654 1.694l-.47 1.207h5.72V20.624h3.48v14.664h3.29l3.295-4.32V2.415H8.296C3.714 2.416.001 6.143 0 10.74" fill="url(#a)"/><defs><linearGradient id="a" x1="0" y1="6.727" x2="19.5" y2="21.5" gradientUnits="userSpaceOnUse"><stop stop-color="#fff"/><stop offset=".535" stop-color="#D5D5D5"/><stop offset="1" stop-color="#fff"/></linearGradient></defs></svg>
